images/logo.svg

<svg width="69" height="56" viewBox="0 0 69 56" fill="none" xmlns="http://www.w3.org/2000/svg">
<g clip-path="url(#clip0)">
<path d="M39.15 16.87L37.84 15.87C37.6353 15.7043 37.3734 15.626 37.1112 15.6522C36.8491 15.6784 36.6079 15.807 36.44 16.01L18.31 36.83L18.59 37.14L23.08 33C22.9304 32.9398 22.8066 32.8291 22.7301 32.6871C22.6536 32.5451 22.6293 32.3807 22.6614 32.2227C22.6935 32.0646 22.7799 31.9227 22.9057 31.8218C23.0315 31.7208 23.1887 31.6671 23.35 31.67C23.4954 31.67 23.637 31.7166 23.754 31.803C23.871 31.8894 23.9572 32.011 24 32.15L29.92 26.66C30.0107 26.587 30.1236 26.5472 30.24 26.5472C30.3564 26.5472 30.4693 26.587 30.56 26.66L30.86 26.88C30.9615 26.9528 31.0865 26.9849 31.2105 26.9701C31.3345 26.9553 31.4485 26.8946 31.53 26.8L39.27 18.12C39.3523 18.0339 39.415 17.931 39.454 17.8184C39.493 17.7058 39.5072 17.5862 39.4958 17.4676C39.4845 17.349 39.4477 17.2343 39.388 17.1312C39.3283 17.028 39.2472 16.939 39.15 16.87Z" fill="#303030"/>
<path d="M47.67 22.73C43.7025 25.553 39.2579 27.6364 34.55 28.88C29.8775 30.0683 25.0962 30.7786 20.28 31C20.377 31.7102 20.5514 32.4077 20.8 33.08C23.52 35.54 44 31.34 48 26.48C48.85 25.47 47.67 22.73 47.67 22.73ZM23.35 33C23.2155 33 23.0841 32.9601 22.9722 32.8854C22.8604 32.8107 22.7733 32.7045 22.7218 32.5802C22.6703 32.4559 22.6569 32.3192 22.6831 32.1873C22.7093 32.0554 22.7741 31.9342 22.8692 31.8391C22.9643 31.744 23.0855 31.6793 23.2174 31.653C23.3493 31.6268 23.486 31.6403 23.6103 31.6917C23.7345 31.7432 23.8407 31.8304 23.9154 31.9422C23.9901 32.054 24.03 32.1855 24.03 32.32C24.0314 32.4097 24.0147 32.4987 23.981 32.5818C23.9473 32.6649 23.8973 32.7404 23.8339 32.8038C23.7705 32.8672 23.695 32.9173 23.6118 32.951C23.5287 32.9847 23.4397 33.0013 23.35 33Z" fill="#303030"/>
<path d="M3.99999 21.2899L4.15999 20.5999L6.75999 21.1899C6.9745 21.5861 7.10713 22.0214 7.14999 22.4699C7.19962 22.945 7.1692 23.425 7.05999 23.8899C6.93055 24.5352 6.634 25.1352 6.19999 25.6299C5.78708 26.097 5.25467 26.4428 4.65999 26.6299C4.04709 26.8189 3.3952 26.8431 2.76999 26.6999C2.14341 26.5646 1.56586 26.2603 1.09999 25.8199C0.641263 25.3969 0.311859 24.8526 0.149994 24.2499C-0.0295716 23.5954 -0.0295716 22.9045 0.149994 22.2499C0.257472 21.76 0.450421 21.2929 0.719994 20.8699C0.975133 20.4853 1.31784 20.1665 1.71999 19.9399L2.07999 20.4899C1.7353 20.7016 1.43941 20.9839 1.21188 21.3183C0.984338 21.6527 0.830321 22.0316 0.759994 22.4299C0.635981 22.9473 0.646308 23.4877 0.789994 23.9999C0.924364 24.4863 1.19089 24.9259 1.55999 25.2699C1.93937 25.6367 2.41403 25.8896 2.92999 25.9999C3.43032 26.1404 3.95967 26.1404 4.45999 25.9999C4.93928 25.8417 5.36976 25.5628 5.70999 25.1899C6.05964 24.7873 6.30059 24.3019 6.40999 23.7799C6.57453 23.1468 6.53248 22.4776 6.28999 21.8699L3.99999 21.2899Z" fill="#303030"/>
<path d="M9.65998 14.9999L7.32998 18.1099L8.32998 19.8999L7.86998 20.5199L4.16998 13.7699L4.59998 13.1799L12.13 14.7999L11.66 15.4199L9.65998 14.9999ZM8.99998 14.8399L4.99998 13.9399L6.99998 17.5299L8.99998 14.8399Z" fill="#303030"/>
<path d="M9 8.5501L9.6 8.1001L13.41 13.2001L16.55 10.8501L16.93 11.3601L13.2 14.1501L9 8.5501Z" fill="#303030"/>
<path d="M15.3 4.38008L15.97 4.08008L18.61 9.86008L22.18 8.24008L22.44 8.82008L18.2 10.7501L15.3 4.38008Z" fill="#303030"/>
<path d="M28.48 6.68003L28.63 7.31003L23.81 8.44003L22.21 1.62003L26.89 0.530029L27.03 1.15003L23.03 2.08003L23.6 4.50003L27.12 3.67003L27.27 4.29003L23.74 5.11003L24.34 7.64003L28.48 6.68003Z" fill="#303030"/>
<path d="M35.35 6.92997L33.68 4.72997C33.4935 4.74029 33.3065 4.74029 33.12 4.72997L31.24 4.78997L31.31 7.00997H30.57L30.34 0.00996866L33 -3.1339e-05C33.7521 -0.0694894 34.5042 0.132721 35.12 0.569969C35.3796 0.778962 35.5882 1.04418 35.7303 1.3456C35.8723 1.64702 35.944 1.97678 35.94 2.30997C35.9692 2.80416 35.8396 3.29473 35.57 3.70997C35.2827 4.10853 34.8766 4.40603 34.41 4.55997L36.16 6.89997L35.35 6.92997ZM34.65 3.63997C34.8298 3.47531 34.9692 3.27154 35.0577 3.04439C35.1461 2.81725 35.1811 2.57281 35.16 2.32997C35.1652 2.08584 35.1148 1.84374 35.0125 1.62198C34.9103 1.40022 34.759 1.20461 34.57 1.04997C34.1091 0.737448 33.5549 0.592707 33 0.639969L31.1 0.709969L31.22 4.20997L33.08 4.14997C33.6472 4.17096 34.2035 3.99026 34.65 3.63997Z" fill="#303030"/>
<path d="M40.64 5.07L40.28 7.46L39.55 7.35L39.92 5L37.85 0L38.63 0.12L40.4 4.38L43.4 0.85L44.1 1L40.64 5.07Z" fill="#303030"/>
<path d="M50.53 4.64993L51.4 5.77993L51.02 6.07993L50.15 4.91993L49.6 6.22993L49.18 6.04993L49.74 4.73993L48.3 4.92993V4.44993L49.72 4.28993L48.84 3.15993L49.23 2.85993L50 3.99993L50.54 2.67993L50.97 2.85993L50.46 4.19993L51.9 3.99993V4.48993L50.53 4.64993Z" fill="#303030"/>
<path d="M53.87 12.7099C53.6339 12.3458 53.4866 11.9314 53.44 11.4999L54.03 11.2399C54.0743 11.6363 54.2039 12.0184 54.41 12.3599C54.6334 12.7428 54.9248 13.0817 55.27 13.3599C55.6264 13.7012 56.0813 13.9216 56.57 13.9899C56.7466 14.0063 56.9245 13.9793 57.0883 13.9114C57.2521 13.8434 57.3969 13.7365 57.51 13.5999C57.5929 13.5084 57.6562 13.4008 57.6957 13.2838C57.7353 13.1669 57.7504 13.043 57.74 12.9199C57.7069 12.6762 57.6253 12.4416 57.5 12.2299C57.3121 11.923 57.1085 11.6259 56.89 11.3399C56.6238 10.9911 56.3831 10.6235 56.17 10.2399C56.0071 9.95284 55.9178 9.6299 55.91 9.29992C55.9093 8.92934 56.0486 8.57218 56.3 8.29992C56.5179 8.03604 56.8055 7.83857 57.13 7.72992C57.4926 7.62518 57.8774 7.62518 58.24 7.72992C58.7072 7.88269 59.139 8.12751 59.51 8.44992C59.8179 8.70599 60.0903 9.00192 60.32 9.32992C60.5324 9.63408 60.6914 9.97227 60.79 10.3299L60.22 10.6299C60.1206 10.2966 59.9723 9.97979 59.78 9.68992C59.5884 9.43106 59.3631 9.199 59.11 8.99992C58.7589 8.66016 58.3054 8.44575 57.82 8.38992C57.6416 8.375 57.4623 8.40466 57.2982 8.47623C57.1342 8.5478 56.9904 8.65903 56.88 8.79992C56.7949 8.89 56.7304 8.99741 56.6907 9.11477C56.651 9.23214 56.6371 9.35669 56.65 9.47992C56.6734 9.73209 56.7556 9.97526 56.89 10.1899C57.03 10.4199 57.23 10.7199 57.5 11.0799C57.7677 11.4207 58.0084 11.7818 58.22 12.1599C58.3864 12.4461 58.4792 12.7691 58.49 13.0999C58.4907 13.4705 58.3514 13.8277 58.1 14.0999C57.8813 14.3674 57.5894 14.5655 57.26 14.6699C56.8981 14.7792 56.5119 14.7792 56.15 14.6699C55.6796 14.5176 55.2444 14.2728 54.87 13.9499C54.4663 13.5986 54.1278 13.1788 53.87 12.7099Z" fill="#303030"/>
<path d="M63.93 14.17L62.52 12.17L63.04 11.8L66.29 16.44L65.77 16.81L64.36 14.81L59.14 18.46L58.72 17.85L63.93 14.17Z" fill="#303030"/>
<path d="M61.69 22.39C61.8685 21.7856 62.2153 21.2445 62.69 20.83C63.1543 20.4141 63.7199 20.1279 64.33 20C64.9519 19.8572 65.6004 19.8814 66.21 20.07C66.7983 20.2645 67.3257 20.6092 67.74 21.07C68.1708 21.5656 68.4639 22.1656 68.59 22.81C68.7556 23.4426 68.7556 24.1073 68.59 24.74C68.4065 25.3421 68.0605 25.8819 67.59 26.3C67.1128 26.727 66.5333 27.0233 65.9077 27.16C65.2821 27.2967 64.6318 27.2691 64.02 27.08C63.4271 26.8949 62.8974 26.5487 62.49 26.08C62.0611 25.587 61.7682 24.9907 61.64 24.35C61.4872 23.7033 61.5044 23.028 61.69 22.39ZM63 25.57C63.3339 25.9502 63.7665 26.2306 64.25 26.38C64.7483 26.5245 65.2749 26.5417 65.7816 26.4298C66.2883 26.318 66.7588 26.0808 67.15 25.74C67.5191 25.4004 67.7916 24.9691 67.94 24.49C68.0794 23.9841 68.0931 23.4517 67.9798 22.9393C67.8665 22.4269 67.6297 21.95 67.29 21.55C66.9414 21.1679 66.4955 20.8879 66 20.74C65.4954 20.606 64.9646 20.606 64.46 20.74C63.9508 20.8377 63.4795 21.0768 63.1 21.43C62.7275 21.7708 62.4545 22.2062 62.31 22.69C62.1742 23.1977 62.1742 23.7322 62.31 24.24C62.4195 24.7361 62.6574 25.1947 63 25.57Z" fill="#303030"/>
<path d="M60.93 33.9999L63.52 32.9999C63.52 32.8199 63.58 32.6399 63.63 32.4499L64.12 30.6399L62 30.0899L62.19 29.3799L68.95 31.1899L68.27 33.7199C68.1168 34.4581 67.7055 35.1176 67.11 35.5799C66.8363 35.7699 66.5224 35.8941 66.1928 35.9427C65.8632 35.9912 65.5268 35.9629 65.21 35.8599C64.7274 35.7552 64.295 35.4891 63.9841 35.1055C63.6732 34.7219 63.5024 34.2437 63.5 33.7499L60.74 34.7499L60.93 33.9999ZM64.28 34.2799C64.3971 34.4924 64.556 34.679 64.7472 34.8286C64.9383 34.9781 65.1577 35.0875 65.3921 35.1501C65.6266 35.2126 65.8713 35.2272 66.1115 35.1928C66.3517 35.1584 66.5825 35.0758 66.79 34.9499C67.2314 34.5954 67.5326 34.0957 67.64 33.5399L68.12 31.7399L64.73 30.8299L64.25 32.6299C64.0655 33.1663 64.0761 33.7506 64.28 34.2799Z" fill="#303030"/>
<path d="M57.34 40.4401L56.83 40.0501L59.83 36.1001L65.41 40.3301L62.51 44.1601L62 43.7701L64.45 40.5401L62.45 39.0301L60.26 41.9201L59.76 41.5401L62 38.6501L59.93 37.0801L57.34 40.4401Z" fill="#303030"/>
<path d="M55 48.4099L53.57 48.4899V48.0099L55 47.9999L54.23 46.8099L54.62 46.5599L55.38 47.7599L56 46.4199L56.43 46.6499L55.75 47.9099L57.18 47.8299V48.3199H55.73L56.5 49.5099L56.11 49.7599L55.35 48.5599L54.69 49.8599L54.27 49.6199L55 48.4099Z" fill="#303030"/>
<path d="M42 47.6099L43.21 48.2799C43.4128 47.8902 43.696 47.5479 44.0407 47.2756C44.3854 47.0033 44.7839 46.8071 45.21 46.6999C45.6074 46.576 46.0254 46.5318 46.44 46.5699C46.7997 46.5975 47.1452 46.7219 47.44 46.9299C47.7064 47.1308 47.9025 47.4108 48 47.7299C48.1205 48.1247 48.0993 48.5491 47.94 48.9299C47.6891 49.4473 47.3508 49.9175 46.94 50.3199C47.2697 50.4971 47.5755 50.7155 47.85 50.9699C48.0386 51.1648 48.179 51.4011 48.26 51.6599C48.3112 51.8617 48.3144 52.0726 48.2693 52.2759C48.2241 52.4791 48.1319 52.6688 48 52.8299C47.733 53.2146 47.3347 53.4884 46.88 53.5999C46.4807 53.7522 46.0393 53.7522 45.64 53.5999C45.4624 53.5235 45.305 53.407 45.1801 53.2596C45.0551 53.1121 44.9661 52.9376 44.92 52.7499C44.8151 52.4198 44.8402 52.0622 44.99 51.7499C45.2195 51.2953 45.52 50.8801 45.88 50.5199L43.47 49.1799C43.378 49.6508 43.3578 50.1329 43.41 50.6099H42.8C42.7589 50.0225 42.8267 49.4326 43 48.8699L41.74 48.1699L42 47.6099ZM43.74 48.6099L46.39 50.0799C46.7373 49.7483 47.0248 49.3592 47.24 48.9299C47.3499 48.64 47.3499 48.3199 47.24 48.0299C47.1946 47.8567 47.1069 47.6974 46.9847 47.5665C46.8625 47.4356 46.7097 47.3371 46.54 47.2799C46.1248 47.1397 45.6751 47.1397 45.26 47.2799C44.9207 47.3694 44.6053 47.5322 44.3357 47.7568C44.0662 47.9814 43.8492 48.2624 43.7 48.5799L43.74 48.6099ZM47.5 52.6099C47.5653 52.4994 47.6063 52.3762 47.6201 52.2486C47.6339 52.1209 47.6202 51.9918 47.58 51.8699C47.5187 51.6724 47.4087 51.4936 47.26 51.3499C47.0054 51.1352 46.7269 50.9506 46.43 50.7999C46.1268 51.0997 45.8615 51.4356 45.64 51.7999C45.5191 52.0271 45.4904 52.2921 45.56 52.5399C45.5917 52.6543 45.6473 52.7607 45.7232 52.8521C45.799 52.9434 45.8934 53.0177 46 53.0699C46.2546 53.1659 46.5354 53.1659 46.79 53.0699C47.0619 52.9974 47.2992 52.8309 47.46 52.5999L47.5 52.6099Z" fill="#303030"/>
<path d="M29.81 55.3201L29.95 48.3201H30.66L30.55 53.9201L33.39 49.2601H33.74L36.4 54.0001L36.5 48.4301H37.21L37.08 55.4301H36.47L33.53 50.2001L30.42 55.3301L29.81 55.3201Z" fill="#303030"/>
<path d="M26.33 48.0001C26.7873 48.4359 27.1145 48.9902 27.2752 49.6012C27.4359 50.2121 27.4237 50.8557 27.24 51.4601C27.0757 52.079 26.7475 52.6421 26.29 53.0901C25.8454 53.5271 25.2879 53.8318 24.68 53.9701C24.0387 54.1148 23.3711 54.0941 22.74 53.9101C22.111 53.7565 21.5323 53.443 21.06 53.0001C20.6095 52.5698 20.2875 52.0228 20.13 51.4201C19.9762 50.7971 19.9876 50.1447 20.1629 49.5274C20.3383 48.9101 20.6716 48.3492 21.13 47.9001C21.5667 47.4642 22.1123 47.1534 22.71 47.0001C23.348 46.8558 24.0122 46.8765 24.64 47.0601C25.2755 47.2212 25.858 47.5452 26.33 48.0001ZM22.92 47.6501C22.4308 47.764 21.9837 48.0135 21.63 48.3701C21.2616 48.737 20.9991 49.1965 20.87 49.7001C20.7305 50.2006 20.7305 50.7296 20.87 51.2301C20.9879 51.717 21.241 52.1607 21.6 52.5101C21.9765 52.8783 22.4414 53.1435 22.95 53.2801C23.4585 53.4096 23.9914 53.4096 24.5 53.2801C24.9895 53.1597 25.4382 52.9112 25.8 52.5601C26.1664 52.1917 26.4286 51.7328 26.56 51.2301C26.6998 50.7263 26.6998 50.1939 26.56 49.6901C26.432 49.205 26.1765 48.7631 25.82 48.4101C25.4415 48.0414 24.9723 47.7792 24.46 47.6501C23.9561 47.5108 23.4239 47.5108 22.92 47.6501Z" fill="#303030"/>
<path d="M15.35 43L15.62 45.75C15.7915 45.8233 15.9585 45.9068 16.12 46L17.75 46.94L18.85 45L19.5 45.37L16 51.4L13.72 50.09C13.0461 49.7515 12.5144 49.1844 12.22 48.49C12.1113 48.1772 12.0746 47.8439 12.1127 47.5149C12.1508 47.1859 12.2627 46.8698 12.44 46.59C12.6724 46.1518 13.0409 45.8008 13.49 45.59C13.946 45.4011 14.4505 45.3626 14.93 45.48L14.64 42.54L15.35 43ZM14.21 46.16C13.9751 46.219 13.7545 46.3247 13.5615 46.4708C13.3684 46.617 13.2068 46.8006 13.0864 47.0107C12.9659 47.2207 12.8891 47.4529 12.8605 47.6934C12.8319 47.9338 12.8522 48.1776 12.92 48.41C13.1544 48.9276 13.5607 49.3481 14.07 49.6L15.68 50.53L17.43 47.53L15.82 46.6C15.3572 46.2533 14.7875 46.0799 14.21 46.11V46.16Z" fill="#303030"/>
<path d="M9.43 38.3101L9.88 37.8601L13.33 41.4101L8.33 46.2901L5 42.8501L5.46 42.4001L8.29 45.3101L10 43.5801L7.52 41.0001L8 40.5401L10.53 43.1401L12.39 41.3301L9.43 38.3101Z" fill="#303030"/>
<path d="M1.99999 34.38L2.23999 33L2.70999 33.07L2.43999 34.49L3.76999 34L3.92999 34.44L2.57999 34.9L3.68999 35.84L3.36999 36.2L2.29999 35.2L2.04999 36.62L1.56999 36.53L1.84999 35.11L0.509985 35.59L0.359985 35.2L1.69999 34.73L0.589985 33.8L0.919985 33.44L1.99999 34.38Z" fill="#303030"/>
</g>
<defs>
<clipPath id="clip0">
<rect width="68.93" height="55.46" fill="white"/>
</clipPath>
</defs>
</svg>

<svg width="69" height="56" fill="none" xmlns="http://www.w3.org/2000/svg"><g clip-path="url(#clip0)" fill="#303030"><path d="M39.15 16.87l-1.31-1a1 1 0 00-1.4.14L18.31 36.83l.28.31L23.08 33a.69.69 0 01.27-1.33.68.68 0 01.65.48l5.92-5.49a.51.51 0 01.64 0l.3.22a.5.5 0 00.67-.08l7.74-8.68a.83.83 0 00-.12-1.25z"/><path d="M47.67 22.73a40.449 40.449 0 01-13.12 6.15A71.154 71.154 0 0120.28 31c.097.71.271 1.408.52 2.08 2.72 2.46 23.2-1.74 27.2-6.6.85-1.01-.33-3.75-.33-3.75zM23.35 33a.68.68 0 11.68-.68.669.669 0 01-.68.68zM4 21.29l.16-.69 2.6.59c.215.396.347.831.39 1.28.05.475.02.955-.09 1.42a3.76 3.76 0 01-.86 1.74 3.43 3.43 0 01-1.54 1 3.65 3.65 0 01-1.89.07 3.51 3.51 0 01-1.67-.88 3.3 3.3 0 01-.95-1.57 3.78 3.78 0 010-2c.107-.49.3-.957.57-1.38a2.92 2.92 0 011-.93l.36.55a2.86 2.86 0 00-1.32 1.94A3.12 3.12 0 00.79 24c.134.486.4.926.77 1.27.38.367.854.62 1.37.73.5.14 1.03.14 1.53 0 .48-.158.91-.437 1.25-.81.35-.403.59-.888.7-1.41a3.07 3.07 0 00-.12-1.91L4 21.29zM9.66 15l-2.33 3.11 1 1.79-.46.62-3.7-6.75.43-.59 7.53 1.62-.47.62-2-.42zM9 14.84l-4-.9 2 3.59 2-2.69zM9 8.55l.6-.45 3.81 5.1 3.14-2.35.38.51-3.73 2.79L9 8.55zM15.3 4.38l.67-.3 2.64 5.78 3.57-1.62.26.58-4.24 1.93-2.9-6.37zM28.48 6.68l.15.63-4.82 1.13-1.6-6.82L26.89.53l.14.62-4 .93.57 2.42 3.52-.83.15.62-3.53.82.6 2.53 4.14-.96zM35.35 6.93l-1.67-2.2c-.187.01-.373.01-.56 0l-1.88.06.07 2.22h-.74l-.23-7L33 0a3.16 3.16 0 012.12.57 2.2 2.2 0 01.82 1.74c.03.494-.1.985-.37 1.4a2.33 2.33 0 01-1.16.85l1.75 2.34-.81.03zm-.7-3.29a1.59 1.59 0 00.51-1.31 1.608 1.608 0 00-.59-1.28A2.43 2.43 0 0033 .64l-1.9.07.12 3.5 1.86-.06a2.4 2.4 0 001.57-.51zM40.64 5.07l-.36 2.39-.73-.11.37-2.35-2.07-5 .78.12 1.77 4.26 3-3.53.7.15-3.46 4.07zM50.53 4.65l.87 1.13-.38.3-.87-1.16-.55 1.31-.42-.18.56-1.31-1.44.19v-.48l1.42-.16-.88-1.13.39-.3L50 4l.54-1.32.43.18-.51 1.34L51.9 4v.49l-1.37.16zM53.87 12.71a2.77 2.77 0 01-.43-1.21l.59-.26c.044.396.174.778.38 1.12.223.383.515.722.86 1a2.35 2.35 0 001.3.63 1.09 1.09 0 00.94-.39.9.9 0 00.23-.68 1.841 1.841 0 00-.24-.69 10.48 10.48 0 00-.61-.89 9.087 9.087 0 01-.72-1.1 2 2 0 01-.26-.94c0-.37.139-.728.39-1a1.83 1.83 0 01.83-.57 2 2 0 011.11 0 3.68 3.68 0 011.27.72c.308.256.58.552.81.88.212.304.371.642.47 1l-.57.3a3.52 3.52 0 00-.44-.94 3.611 3.611 0 00-.67-.69 2.22 2.22 0 00-1.29-.61 1.08 1.08 0 00-.94.41.86.86 0 00-.23.68c.023.252.106.495.24.71.14.23.34.53.61.89.268.34.508.702.72 1.08a2 2 0 01.27.94c0 .37-.139.728-.39 1a1.78 1.78 0 01-.84.57 1.92 1.92 0 01-1.11 0 3.71 3.71 0 01-1.28-.72 4.549 4.549 0 01-1-1.24zM63.93 14.17l-1.41-2 .52-.37 3.25 4.64-.52.37-1.41-2-5.22 3.65-.42-.61 5.21-3.68zM61.69 22.39a3.319 3.319 0 011-1.56 3.55 3.55 0 011.64-.83 3.62 3.62 0 011.88.07 3.56 3.56 0 011.53 1 3.75 3.75 0 01.85 1.74 3.811 3.811 0 010 1.93 3.421 3.421 0 01-1 1.56 3.71 3.71 0 01-3.57.78 3.35 3.35 0 01-1.53-1 3.76 3.76 0 01-.85-1.73 3.849 3.849 0 01.05-1.96zM63 25.57c.334.38.767.66 1.25.81a3.1 3.1 0 002.9-.64c.37-.34.642-.77.79-1.25a3.22 3.22 0 00-.65-2.94 2.85 2.85 0 00-1.29-.81 3 3 0 00-1.54 0 2.76 2.76 0 00-1.36.69 2.79 2.79 0 00-.79 1.26 3 3 0 000 1.55 2.9 2.9 0 00.69 1.33zM60.93 34l2.59-1c0-.18.06-.36.11-.55l.49-1.81-2.12-.55.19-.71 6.76 1.81-.68 2.53a3.17 3.17 0 01-1.16 1.86 2.161 2.161 0 01-1.9.28 2.17 2.17 0 01-1.71-2.11l-2.76 1 .19-.75zm3.35.28a1.8 1.8 0 002.51.67 2.39 2.39 0 00.85-1.41l.48-1.8-3.39-.91-.48 1.8a2.41 2.41 0 00.03 1.65zM57.34 40.44l-.51-.39 3-3.95 5.58 4.23-2.9 3.83-.51-.39 2.45-3.23-2-1.51-2.19 2.89-.5-.38L62 38.65l-2.07-1.57-2.59 3.36zM55 48.41l-1.43.08v-.48L55 48l-.77-1.19.39-.25.76 1.2.62-1.34.43.23-.68 1.26 1.43-.08v.49h-1.45l.77 1.19-.39.25-.76-1.2-.66 1.3-.42-.24.73-1.21zM42 47.61l1.21.67a3.109 3.109 0 012-1.58 3.16 3.16 0 011.23-.13 2 2 0 011 .36c.266.2.463.48.56.8.12.395.1.82-.06 1.2a5 5 0 01-1 1.39c.33.177.636.395.91.65.189.195.329.431.41.69a1.332 1.332 0 01-.26 1.17 1.92 1.92 0 01-1.12.77c-.4.152-.84.152-1.24 0a1.25 1.25 0 01-.72-.85 1.36 1.36 0 01.07-1 4.8 4.8 0 01.89-1.23l-2.41-1.34c-.092.47-.112.953-.06 1.43h-.61a4.778 4.778 0 01.2-1.74l-1.26-.7.26-.56zm1.74 1l2.65 1.47a4.18 4.18 0 00.85-1.15c.11-.29.11-.61 0-.9a1.08 1.08 0 00-.7-.75 2 2 0 00-1.28 0 2.4 2.4 0 00-1.56 1.3l.04.03zm3.76 4a.9.9 0 00.08-.74 1.23 1.23 0 00-.32-.52 4.322 4.322 0 00-.83-.55 5.22 5.22 0 00-.79 1 1 1 0 00-.08.74.84.84 0 00.44.53c.255.096.535.096.79 0a1.19 1.19 0 00.67-.47l.04.01zM29.81 55.32l.14-7h.71l-.11 5.6 2.84-4.66h.35L36.4 54l.1-5.57h.71l-.13 7h-.61l-2.94-5.23-3.11 5.13-.61-.01zM26.33 48a3.41 3.41 0 01.91 3.46 3.56 3.56 0 01-.95 1.63 3.36 3.36 0 01-1.61.88 3.88 3.88 0 01-1.94-.06 3.76 3.76 0 01-1.68-.91 3.36 3.36 0 01-.93-1.58 3.69 3.69 0 011-3.52 3.45 3.45 0 011.58-.9 3.85 3.85 0 011.93.06 3.77 3.77 0 011.69.94zm-3.41-.35a2.67 2.67 0 00-1.29.72 2.89 2.89 0 00-.76 1.33c-.14.5-.14 1.03 0 1.53.118.487.371.93.73 1.28a3.07 3.07 0 001.35.77 3.14 3.14 0 001.55 0c.49-.12.938-.369 1.3-.72a2.94 2.94 0 00.76-1.33 2.88 2.88 0 000-1.54 2.81 2.81 0 00-.74-1.28 3 3 0 00-1.36-.76 2.89 2.89 0 00-1.54 0zM15.35 43l.27 2.75c.171.073.339.157.5.25l1.63.94 1.1-1.94.65.37L16 51.4l-2.28-1.31a3.18 3.18 0 01-1.5-1.6 2.2 2.2 0 01.22-1.9c.232-.438.6-.79 1.05-1a2.32 2.32 0 011.44-.11l-.29-2.94.71.46zm-1.14 3.16a1.802 1.802 0 00-1.29 2.25c.234.518.64.938 1.15 1.19l1.61.93 1.75-3-1.61-.93a2.47 2.47 0 00-1.61-.49v.05zM9.43 38.31l.45-.45 3.45 3.55-5 4.88L5 42.85l.46-.45 2.83 2.91L10 43.58 7.52 41l.48-.46 2.53 2.6 1.86-1.81-2.96-3.02zM2 34.38L2.24 33l.47.07-.27 1.42L3.77 34l.16.44-1.35.46 1.11.94-.32.36-1.07-1-.25 1.42-.48-.09.28-1.42-1.34.48-.15-.39 1.34-.47-1.11-.93.33-.36 1.08.94z"/></g><defs><clipPath id="clip0"><path d="M0 0h68.93v55.46H0z"/></clipPath></defs></svg>
